X:1
T:Capriccio No. 3
T:Capriccio No. 3 in C major
T:Joseph Dall'Abaco (1710-1805) arr. Felix Scharpf 
T:from: "11 Capricci for Solo Cello" (Ed. by Erik Hamrefors) Arrangement for Solo Flute 
T:twoflutes 2020 / Felix Scharpf
T:twoflutes 2020 / Felix Scharpf
T:twoflutes 2020 / Felix Scharpf
C:Dall'Abaco, Joseph
Z:twoflutes 2020 / Felix Scharpf
L:1/8
Q:1/4=96
M:4/4
K:C
V:1 treble nm="Flöte" snm="Fl."
V:1
!mf! .C/.c/ (d/4c/4B/4c/4)!>(! .g/(c/E/).c/ .F/(c/d/c/) .G/c/(B/c/)!>)! | %1
!p! .C/.c/!<(! (d/4c/4B/4c/4) .g/(c/E/).c/ .F/(c/d/c/) (G/c/)(B/d/) | %2
 .c!tenuto!C!<)! z/!mf! c/!<(! (Pc/B/4c/4) .d/.B/.G/.D/ .B,.d | %3
 .e!tenuto!C z/ e/ (e/d/4e/4) .f/.d/.B/.G/ .D.f!<)! | %4
!f! .g!tenuto!E z!mf! g!>(! .a/(c'/b/c'/) (d'/c'/b/c'/)!>)! | %5
 (g/c'/)(b/d'/) (c'/b/c'/).e/ (g/f/e/f/) (B/f/)(c/e/) | d3!mp! g .a/(c'/b/c'/) (d'/c'/b/c'/) | %7
 (g/c'/)(b/d'/) (c'/b/c'/).e/!<(! (g/f/e/f/) (B/f/)c/e/!<)! | %8
{e} d4!mf! .G/.g/ (Pg/^f/4g/4) .b/(g/B/).g/ | .c/(g/a/g/) (d/g/)(^f/a/) .g/(G/B/d/) (g/b/a/g/) | %10
 .a/(^F/A/d/) .^f/(c'/b/a/) .b/(G/B/d/) .g/(d'/c'/b/) | %11
 (c'/b/a/g/ ^f/e/d/c/ .B/)(G/B/d/) (g/b/a/g/) | %12
 .a/(^F/A/d/) .^f/(c'/b/a/) .b/(G/B/d/) .g/(d'/c'/b/) | %13
 .c'/(e/^f/).c'/ !tenuto!D/(c'/b/a/) (b/f/)(g/d/) .e/(B/c/d/) | %14
 (c/e/^f/g/ a/g/f/e/) .f/.d/.A/.^F/ !tenuto!D2 | %15
 .D/.c/ (e/4c/4B/4c/4) (^f/c/)(a/c/) (B/d/g/b/)!>(! .d'/(b/a/g/)!>)! | %16
!p! .D/.c/ (Pc/B/4c/4) (^f/c/)(a/c/) (B/d/g/b/) .d'/(b/a/g/) | %17
!<(! .D/.c/ (d/B/4c/4) (^f/c/)(a/c/) (B/d/g/b/)!<)!!f! .d'/(g/=f/).d'/ | %18
 .e/(d'/c'/b/) (!>!c'/b/a/g/ !>!^f/g/f/e/ !>!d/e/d/c/) | %19
"_dim." .B/.g/ (Pg/^f/4g/4) .b/(g/B/).g/ .c/.g/ (g/f/4g/4) .b/(g/d/).g/ | %20
 .e/.g/ (a/4g/4^f/4g/4) .b/(g/B/).g/ .c/(g/a/g/) (d/g/)(f/a/) | %21
 .G/.g/ (a/4g/4^f/4g/4) .b/(g/B/).g/ .c/.g/ (a/4g/4f/4g/4) .b/(g/d/).g/ | %22
 .e/.g/ (a/4g/4^f/4g/4) .b/(g/B/).g/ .c/(g/a/g/) (d/g/)(f/a/) | .g.G.B.d!p! g4 :: %24
!f! .G/(d/f/)!>!b/ .d/(f/e/)!>!c'/ .G/(d/f/)!>!b/ .d/(f/e/)!>!c'/ | %25
!p! .G/(d/f/)!>!b/ .d/(f/e/)!>!c'/ .G/(c'/b/a/)!>(! (bTa)!>)! | %26
!mf! .E/(B/d/)!>!^g/ .B/(d/c/)!>!a/ .E/(B/d/)!>!g/ .B/(d/c/)!>!a/ | %27
!p! .E/(B/d/)!>!^g/ .B/(d/c/)!>!a/ .E/(a/g/^f/)!<(! (ge)!<)! | %28
!mf! .A/.e/(c'/b/ a/g/^f/e/) .^d/.B/(^f'/e'/ !>!^d'/=c'/b/a/) | %29
!>(! (!>!g/b/a/g/ !>!^f/g/f/e/ !>!^d/e/d/=c/ !>!B/!>)!!mp!c/!<(!B/A/)!<)! | %30
!f! .G/.e/ (^f/4e/4^d/4e/4) .f/(e/G/).e/ .A/.e/!>(! (f/4e/4d/4e/4) .f/(e/B/).e/!>)! | %31
!p! .c/.e/!<(! (^f/4e/4^d/4e/4) .f/(e/G/).e/ .A/(e/f/e/) .B/(e/f/).d/!<)! | %32
!mf! .E/!<(!(B/^c/^d/) (e/^f/g/).B/!<)!!f! .A/(e/g/)!>!^c'/ .e/(g/=f/)!>!d'/ | %33
!p! .A/(e/g/)!>!^c'/ .e/(g/f/)!>!d'/ .A/.e/!>!c'/.e/!<(! .A/.f/!>!d'/.f/!<)! | %34
!mf! .A/(d'/=c'/b/) c'/(e/^f/)!>!d'/ .G/(d/=f/)!>!b/!>(! .d/(f/e/)!>!c'/!>)! | %35
!p! .G/(d/f/)!>!b/ .d/(f/e/)!>!c'/ .G/.d/!>!b/.d/ .G/.e/!>!c'/.e/ | %36
!>(! .G/(c'/b/a/) .bG!>)!!mp! .C/.c/"_cresc." (d/4c/4B/4c/4) .g/(c/E/).c/ | %37
 .F/(c/d/c/) (G/c/)(B/d/) .C/.c/ (d/4c/4B/4c/4) .g/(c/E/).c/ | %38
 .F/.d/ (e/4d/4c/4d/4) !>!a/(d/^F/).d/ .G/.e/ (f/4e/4d/4e/4) !>!b/(e/^G/).e/ | %39
 .A/.=f/ (g/4f/4e/4f/4)!f! !>!d'/(f/B/).f/ .c/(e/f/e/) .c/(e/f/e/) | %40
 .G/.d/ (e/4d/4^c/4d/4) !>!b/(d/^G/).d/ .A/(=c/d/c/) .A/(c/d/c/) | %41
 .E/._B/ (c/4B/4A/4B/4) !>!g/(B/E/).B/ (!>!F/A/B/A/) (!>!F/A/B/A/) | %42
 (!>!C/G/A/G/) (!>!C/G/A/G/) (!>!D/F/G/A/) (!>!B,/A/G/F/) | %43
 (!>!E/C/E/G/) (!>!c/B/A/G/) (!>!A/G/F/E/) (!>!F/E/D/C/) | %44
 (!>!B,/G/d/c/) (B/A/G/F/) !>!C/.G/(e/d/ c/B/A/G/) | %45
 !>!D/.A/(f/e/ d/c/B/A/) !>!E/.c/(g/f/ e/d/c/B/) | %46
 !>!A/.e/(c'/b/ a/g/^f/g/) .c/.f/.a/.c'/ (f/a/)(c/f/) | %47
 (!>!B/d/e/^f/ g/a/b/c'/ !>!d'/c'/b/a/ !>!g/a/g/=f/ | %48
 !>!e/g/f/e/ !>!d/e/d/c/ !>!B/c/B/A/ !>!G/A/G/F/) | %49
!f! .E/"_dim.".c/ (d/4c/4B/4c/4) .g/(c/E/).c/ .F/.c/ (d/4c/4B/4c/4) .g/(c/G/).c/ | %50
 .A/.c/ (d/4c/4B/4c/4) .g/(c/E/).c/ .F/(c/d/c/) (G/c/)(B/d/) | %51
 .C/.c/ (d/4c/4B/4c/4) .g/(c/E/).c/ .F/.c/ (d/4c/4B/4c/4) .g/(c/G/).c/ | %52
 .A/.c/ (d/4c/4B/4c/4) .g/(c/E/).c/ .F/(c/d/c/) (G/c/)(B/d/) | .c.C.E.G!pp! c4 :| %54

